svgs/light/chart-waterfall.svg

<svg xmlns="http://www.w3.org/2000/svg" viewBox="0 0 512 512"><!--! Font Awesome Pro 6.4.0 by @fontawesome - https://fontawesome.com License - https://fontawesome.com/license (Commercial License) Copyright 2023 Fonticons, Inc. --><path d="M16 32c8.8 0 16 7.2 16 16V400c0 26.5 21.5 48 48 48H496c8.8 0 16 7.2 16 16s-7.2 16-16 16H80c-44.2 0-80-35.8-80-80V48c0-8.8 7.2-16 16-16zM144 224c8.8 0 16 7.2 16 16v96c0 8.8-7.2 16-16 16s-16-7.2-16-16V240c0-8.8 7.2-16 16-16zm112-80v96c0 8.8-7.2 16-16 16s-16-7.2-16-16V144c0-8.8 7.2-16 16-16s16 7.2 16 16zm80-80c8.8 0 16 7.2 16 16v96c0 8.8-7.2 16-16 16s-16-7.2-16-16V80c0-8.8 7.2-16 16-16zM448 80V336c0 8.8-7.2 16-16 16s-16-7.2-16-16V80c0-8.8 7.2-16 16-16s16 7.2 16 16z"/></svg>

<svg xmlns="http://www.w3.org/2000/svg" viewBox="0 0 512 512"><!--! Font Awesome Pro 6.3.0 by @fontawesome - https://fontawesome.com License - https://fontawesome.com/license (Commercial License) Copyright 2023 Fonticons, Inc. --><path d="M16 32C24.84 32 32 39.16 32 48V400C32 426.5 53.49 448 80 448H496C504.8 448 512 455.2 512 464C512 472.8 504.8 480 496 480H80C35.82 480 0 444.2 0 400V48C0 39.16 7.164 32 16 32zM144 224C152.8 224 160 231.2 160 240V336C160 344.8 152.8 352 144 352C135.2 352 128 344.8 128 336V240C128 231.2 135.2 224 144 224zM256 240C256 248.8 248.8 256 240 256C231.2 256 224 248.8 224 240V144C224 135.2 231.2 128 240 128C248.8 128 256 135.2 256 144V240zM336 64C344.8 64 352 71.16 352 80V176C352 184.8 344.8 192 336 192C327.2 192 320 184.8 320 176V80C320 71.16 327.2 64 336 64zM448 336C448 344.8 440.8 352 432 352C423.2 352 416 344.8 416 336V80C416 71.16 423.2 64 432 64C440.8 64 448 71.16 448 80V336z"/></svg>
